X:1
T:Title
%%score ( 1 2 ) ( 3 4 )
L:1/8
Q:1/4=97
M:4/4
K:Bb
V:1 treble nm="Grand Piano, Soprano"
V:2 treble 
V:3 bass nm="Choir Pad, Send Out the Tidings"
V:4 bass 
V:1
 [DB]2 [DB]>[Ec] [DB][DA][DG][DF] | [DB]2 [Dc]2 [Dd]4 | [Ed]2 [Ec]>[D=B] [Ec][Ge][Fd][Ec] | %3
w: By~Joseph~Lincoln~Hall * * * * * *|||
 [DB]2 [EG]2 [DF]4 | [DB]2 [DB]>[Ec] [DB][DA][DG][DF] | [DB]2 [Dc]2 [Dd]4 | %6
w: |||
 [Fc]2 [Fc]>[Fd] [=Ec][EB][EG][Ec] | F6 F2 | EFGA d2 c2 | cBAB F4 | EFGA [GB]2 [Gc]2 | [^Fd]6 d2 | %12
w: ||||||
 edcB A2 Bc | dcBA G2 GA | B2 AG F2 E2 | D4 [EF]4 | [DB]2 [DB]>[Ec] [DB][DA][DG][DF] | %17
w: |||||
 [DB]2 [Dc]2 [Dd]4 | [Ed]2 [Ec]>[D=B] [Ec][Ge][Fd][Ec] | [DB]2 [EG]2 [DF]4 | %20
w: |||
 [DB]2 [DB]>[Ec] [DB][DA][DG][DF] | [DB]2 [Fd]2 [Ff]2 [Fe]2 | [Fd]2 [Fd]>[Ge] [Fd][Ec][DB][CA] | %23
w: |||
 [DB]8 |] %24
w: |
V:2
 x8 | x8 | x8 | x8 | x8 | x8 | x8 | x8 | x8 | x8 | x8 | x8 | x8 | x8 | x8 | A,8 | x8 | x8 | x8 | %19
 x8 | x8 | x8 | x8 | x8 |] %24
V:3
 [B,,F,]2 [F,,F,]2 [B,,F,]2 [F,,F,]2 | [B,,F,]2 [F,,F,]2 [B,,F,]2 [F,,F,]2 | %2
 [F,A,]2 [F,A,]2 [F,A,]2 [F,A,]2 | [B,,F,]2 G,A, B,G,F,D, | [B,,F,]2 [F,,F,]2 [B,,F,]2 [F,,F,]2 | %5
 [B,,F,]2 [F,,F,]2 [B,,F,]2 [F,,F,]2 | [C,B,]2 [C,B,]2 [C,G,]2 [C,B,]2 | %7
 F,2 [F,A,]>[F,A,] [F,A,]2 z2 | [F,,F,]2 [F,A,E]2 [F,A,E]2 [F,A,E]2 | %9
 B,,2 [F,B,D]2 [F,B,D]2 [F,B,D]2 | [F,,F,]2 [F,A,E]2 [E,B,]2 [E,G,]2 | %11
 [D,A,]2 [D,A,]>[D,A,] [D,A,]2 z2 | [F,,F,]2 [F,A,E]2 [F,A,E]2 [F,A,E]2 | %13
 [G,,G,]2 [G,B,D]2 [G,B,D]2 G,A, | B,2 A,G, F,2 E,2 | [D,^F,]4 [C,=F,]4 | %16
 [B,,F,]2 [F,,F,]2 [B,,F,]2 [F,,F,]2 | [B,,F,]2 [F,,F,]2 [B,,F,]2 [F,,F,]2 | %18
 [F,A,]2 [F,A,]2 [F,A,]2 [F,A,]2 | [B,,F,]2 G,A, B,G,F,D, | [B,,F,]2 [F,,F,]2 [B,,F,]2 [F,,F,]2 | %21
 [B,,F,]2 [B,,B,]2 [D,B,]2 [E,B,]2 | [F,B,]2 [F,B,]2 [F,A,]2 [F,A,]2 | [B,,F,]8 |] %24
V:4
 x8 | x8 | x8 | z2 B,,2 B,,4 | x8 | x8 | x8 | x8 | x8 | x8 | x8 | x8 | x8 | x8 | x8 | x8 | x8 | %17
 x8 | x8 | z2 B,,2 B,,4 | x8 | x8 | x8 | x8 |] %24

